src/images/single-assets/CRONA.svg

<?xml version="1.0" encoding="UTF-8"?>
<svg width="512px" height="512px" viewBox="0 0 512 512" version="1.1" xmlns="http://www.w3.org/2000/svg" xmlns:xlink="http://www.w3.org/1999/xlink">
    <title>CronaSwapLogo_drak512</title>
    <defs>
        <linearGradient x1="82.8104%" y1="42.6539282%" x2="12.4312954%" y2="56.5931536%" id="linearGradient-1">
            <stop stop-color="#50D546" offset="0%"></stop>
            <stop stop-color="#FFEB17" offset="51.2485211%"></stop>
            <stop stop-color="#FF8200" offset="100%"></stop>
        </linearGradient>
        <linearGradient x1="16.9903565%" y1="14.0653172%" x2="100%" y2="50%" id="linearGradient-2">
            <stop stop-color="#003DE9" offset="0%"></stop>
            <stop stop-color="#FF0058" offset="38.0035203%"></stop>
            <stop stop-color="#81BB47" offset="100%"></stop>
        </linearGradient>
    </defs>
    <g id="CronaSwapLogo_drak512" stroke="none" stroke-width="1" fill="none" fill-rule="evenodd">
        <g id="eg-2">
            <g id="eg" fill="#0D0C2B">
                <circle id="circular" cx="256" cy="256" r="256"></circle>
            </g>
            <g id="logo" transform="translate(88.000000, 82.000000)">
                <path d="M4.17261321,189.365483 L128.875915,312.296996 C141.8306,323.841138 153.849473,323.841138 164.932535,312.296996 C214.49929,261.831186 239.778335,236.093623 240.76967,235.084307 L240.800017,235.05341 L240.800017,235.05341 C261.430939,234.770259 272.262173,234.621604 273.293719,234.607447 L273.362127,234.606508 C273.370813,234.606389 273.375157,234.606329 273.375157,234.606329 C208.697264,301.71227 176.358318,335.265241 176.358318,335.265241 C155.776078,351.395164 136.317791,351.134166 117.983458,334.482249 C41.9557262,255.861095 3.94186047,216.550518 3.94186047,216.550518 L4.17261321,189.365483 Z M339,225.745376 L228.147103,336.515063 L200.590277,336.515063 L311.456748,225.745376 L339,225.745376 Z" id="Path-9" fill="url(#linearGradient-1)"></path>
                <path d="M156.761127,4.81753697 C156.761127,4.81753697 116.054907,44.7587867 34.6424674,124.641286 C23.1746574,135.615319 23.1746574,147.515957 34.6424674,160.343201 L34.6424674,160.343201 L156.761127,283.819742 L129.755846,284.048224 C129.755846,284.048224 90.7052001,246.408318 12.6039079,171.128504 C-3.93790271,152.974534 -4.1971742,133.707667 11.8260935,113.327903 C11.8260935,113.327903 48.9826584,77.1577813 123.295788,4.81753697 L123.295788,4.81753697 Z M180.809799,12.5724245 C199.00923,-3.92806618 218.324344,-4.18669003 238.755142,11.796553 C238.755142,11.796553 270.856141,45.0444051 335.05814,111.540109 C335.05814,111.540109 335.053828,111.54005 335.045205,111.539932 L334.977301,111.539002 C333.953345,111.524973 323.201806,111.377671 302.722685,111.097094 C302.722685,111.097094 302.720174,111.094543 302.715154,111.08944 L302.654906,111.028207 C301.193907,109.543309 276.113414,84.052551 227.413429,34.5559336 C216.411915,23.1167691 204.481476,23.1167691 191.62211,34.5559336 L191.62211,34.5559336 L67.836364,156.369552 L67.6073091,129.431728 C67.6073091,129.431728 105.341472,90.4786266 180.809799,12.5724245 Z M221.784273,62.9119501 L273.582059,111.347779 L247.000436,111.347779 L195.159925,62.9119501 L221.784273,62.9119501 Z" id="Path-8" fill="url(#linearGradient-2)"></path>
            </g>
        </g>
    </g>
</svg>

<svg xmlns="http://www.w3.org/2000/svg" width="512" height="512"><defs><linearGradient id="a" x1="82.81%" x2="12.431%" y1="42.654%" y2="56.593%"><stop offset="0%" stop-color="#50D546"/><stop offset="51.249%" stop-color="#FFEB17"/><stop offset="100%" stop-color="#FF8200"/></linearGradient><linearGradient id="b" x1="16.99%" x2="100%" y1="14.065%" y2="50%"><stop offset="0%" stop-color="#003DE9"/><stop offset="38.004%" stop-color="#FF0058"/><stop offset="100%" stop-color="#81BB47"/></linearGradient></defs><g fill="none" fill-rule="evenodd"><circle cx="256" cy="256" r="256" fill="#0D0C2B"/><path fill="url(#a)" d="m4.173 189.365 124.703 122.932q19.432 17.316 36.057 0l75.837-77.213.03-.03 32.494-.447h.081l-97.017 100.658q-30.873 24.196-58.375-.783L3.942 216.551zM339 225.745l-110.853 110.77H200.59l110.867-110.77z" transform="translate(88 82)"/><path fill="url(#b)" d="M156.761 4.818 34.642 124.64q-17.2 16.461 0 35.702l122.12 123.477-27.006.228-117.152-112.92q-24.813-27.23-.778-57.8l111.47-108.51Zm24.049 7.754q27.3-24.75 57.945-.775l96.303 99.743h-.013l-.068-.001-32.254-.442-.008-.008-.06-.06-75.242-76.473q-16.502-17.16-35.79 0L67.835 156.37l-.229-26.938zm40.974 50.34 51.798 48.436H247l-51.84-48.436z" transform="translate(88 82)"/></g></svg>
